public/images/arrow_right.svg

<svg width="26.004" height="13.322" fill="none" xmlns="http://www.w3.org/2000/svg"><path d="m22.58 5.66-3.95-3.95c-.39-.4-.39-1.02 0-1.42.4-.39 1.02-.39 1.42 0l5.65 5.66c.4.39.4 1.02 0 1.41l-5.65 5.66c-.4.4-1.02.4-1.42 0a.996.996 0 0 1 0-1.41l3.95-3.95H0v-2h22.58z" fill="#7D7C8F" fill-rule="evenodd"/></svg>

<svg width="26.003906" height="13.321899" viewBox="0 0 26.0039 13.3219" fill="none" xmlns="http://www.w3.org/2000/svg" xmlns:xlink="http://www.w3.org/1999/xlink">
	<desc>
			Created with Pixso.
	</desc>
	<defs/>
	<path id="Arrow 3" d="M22.58 5.66L18.63 1.71C18.24 1.31 18.24 0.69 18.63 0.29C19.03 -0.1 19.65 -0.1 20.05 0.29L25.7 5.95C26.1 6.34 26.1 6.97 25.7 7.36L20.05 13.02C19.65 13.42 19.03 13.42 18.63 13.02C18.24 12.62 18.24 12 18.63 11.61L22.58 7.66L0 7.66L0 5.66L22.58 5.66Z" fill="#7D7C8F" fill-opacity="1.000000" fill-rule="evenodd"/>
</svg>
